icons/speech-bubble-warning.svg

<svg xmlns="http://www.w3.org/2000/svg" width="24" height="24" viewBox="0 0 24 24">
  <path d="M15,3 C19.5522847,3 23,6.44771525 23,11 C23,15.5522847 19.5522847,19 15,19 L15,19 L14.492,19 L14.4215793,19.0906275 C13.7103901,19.9663638 12.948642,20.6393906 11.8907103,21.256749 L11.8907103,21.256749 L11.5946555,21.4238497 L11.2369286,21.6140163 L10.9086251,21.7821926 C9.57755795,22.4597178 8,21.4937799 8,20 L8,20 L8,19 C4.27285013,19 1,15.3634999 1,11 C1,6.5377729 4.49099359,3 9,3 L9,3 Z M12,13 C11.4477153,13 11,13.4477153 11,14 C11,14.5522847 11.4477153,15 12,15 C12.5522847,15 13,14.5522847 13,14 C13,13.4477153 12.5522847,13 12,13 Z M12,7 C11.4477153,7 11,7.44771525 11,8 L11,8 L11,11 C11,11.5522847 11.4477153,12 12,12 C12.5522847,12 13,11.5522847 13,11 L13,11 L13,8 C13,7.44771525 12.5522847,7 12,7 Z"/>
</svg>

<svg xmlns="http://www.w3.org/2000/svg" viewBox="0 0 24 24">
  <path d="M15 3c4.55 0 8 3.45 8 8s-3.45 8-8 8h-.5l-.08.1a8.85 8.85 0 0 1-2.53 2.16l-.3.16-.35.2-.33.16A2 2 0 0 1 8 20v-1c-3.73 0-7-3.64-7-8 0-4.46 3.5-8 8-8zm-3 10a1 1 0 1 0 0 2 1 1 0 0 0 0-2zm0-6a1 1 0 0 0-1 1v3a1 1 0 0 0 2 0V8a1 1 0 0 0-1-1z"/>
</svg>
